src/assets/images/title-banner.svg

<svg fill="none" height="213" viewBox="0 0 1811 213" width="1811" xmlns="http://www.w3.org/2000/svg"><path d="m223.501 125.296c-2.926.283-5.522.614-7.788.991-2.266.378-5.098 1.133-8.496 2.266-3.871 1.227-6.419 3.257-7.647 6.089-1.227 2.832-1.841 5.805-1.841 8.92v23.365c0 4.72.048 8.543.142 11.469.094 2.833.236 6.373.425 10.621-9.44 5.664-23.412 10.997-41.914 16.001-18.408 5.003-35.353 7.504-50.835 7.504-14.5379 0-28.1788-2.218-40.923-6.655-12.7441-4.437-23.9306-11.092-33.5595-19.966-9.629-8.779-17.2282-19.682-22.7979-32.71-5.47526-13.027-8.2128891-27.942-8.2128891-44.746 0-15.6703 2.5960291-30.1608 7.7880891-43.4714 5.1921-13.3105 12.6969-24.7802 22.5146-34.4091 9.629-9.5346 21.3347-16.8978 35.1172-22.08989 13.877-5.19206 29.2172-7.788087 46.0204-7.788087 11.423 0 21.996 1.416017 31.719 4.248047 9.723 2.73763 17.747 5.71123 24.072 8.92093l8.779-7.78812h12.32l1.274 73.34962h-12.461c-7.174-21.9955-15.765-38.3268-25.771-48.9941-10.007-10.6674-22.656-16.001-37.949-16.001-18.1254 0-32.144 7.9297-42.0561 23.789-9.8177 15.8594-14.7266 37.7133-14.7266 65.5611 0 29.548 4.8145 52.676 14.4434 69.385 9.7233 16.709 23.4587 25.064 41.2063 25.064 8.307 0 15.67-1.228 22.09-3.682 6.513-2.549 11.564-5.475 15.151-8.779v-40.781c0-3.399-.614-6.231-1.841-8.497-1.227-2.36-3.682-4.389-7.363-6.088-2.832-1.322-6.372-2.408-10.62-3.257-4.248-.85-7.788-1.463-10.62-1.841v-11.045h104.36zm210.618-96.8556c9.912 9.0625 17.748 20.0131 23.506 32.8516 5.853 12.8385 8.779 27.4707 8.779 43.896 0 14.633-2.454 28.557-7.363 41.773s-11.989 24.591-21.24 34.126c-9.724 9.912-21.146 17.653-34.268 23.223-13.122 5.475-28.745 8.212-46.87 8.212-14.632 0-28.462-2.407-41.489-7.221-13.028-4.815-24.497-11.8-34.409-20.957-9.818-8.968-17.606-19.872-23.365-32.71-5.758-12.839-8.637-27.141-8.637-42.905 0-16.4263 2.785-31.2944 8.354-44.605 5.664-13.4049 13.405-24.8747 23.223-34.4092 9.723-9.3457 21.24-16.5201 34.551-21.52339 13.405-5.09766 27.659-7.646488 42.763-7.646488 15.01 0 29.076 2.454428 42.198 7.363278 13.216 4.9089 24.638 11.7529 34.267 20.5322zm-36.391 143.7256c4.248-8.59 7.316-18.314 9.204-29.17s2.832-23.128 2.832-36.816c0-11.6116-.85-22.8926-2.549-33.8431-1.605-11.0449-4.39-20.8626-8.355-29.4531-4.059-8.5905-9.44-15.4818-16.142-20.6738-6.703-5.1921-15.057-7.7881-25.064-7.7881-17.086 0-30.066 8.1185-38.94 24.3554-8.874 16.1426-13.311 38.9877-13.311 68.5347 0 12.556.944 24.403 2.832 35.542 1.983 11.14 5.051 20.863 9.204 29.17 4.249 8.402 9.629 14.963 16.143 19.683 6.514 4.626 14.538 6.939 24.072 6.939 9.346 0 17.37-2.361 24.073-7.081 6.702-4.72 12.036-11.186 16.001-19.399zm292.18-29.595-3.965 64.429h-185.073v-11.045c3.304-.283 7.175-.708 11.611-1.274 4.437-.661 7.364-1.275 8.78-1.841 3.398-1.322 5.758-3.163 7.08-5.523 1.321-2.36 1.982-5.38 1.982-9.062v-141.7433c0-3.3984-.519-6.1832-1.557-8.3545-1.039-2.2656-3.54-4.2952-7.505-6.0888-2.927-1.3217-6.467-2.3601-10.62-3.1153-4.06-.8496-7.316-1.4632-9.771-1.8408v-11.04492h110.308v11.04492c-3.021.2832-6.608.708-10.762 1.2744-4.059.472-7.599 1.18-10.62 2.124-3.682 1.2273-6.136 3.1625-7.363 5.8057-1.228 2.5488-1.841 5.4753-1.841 8.7793v132.1143c0 6.23.425 11.139 1.274 14.727.85 3.587 2.502 6.23 4.956 7.929 2.455 1.794 5.853 2.974 10.196 3.54 4.436.472 10.525.708 18.266.708 7.552 0 14.868-.425 21.948-1.274 7.175-.944 12.32-2.927 15.435-5.947 4.814-4.815 9.723-11.565 14.727-20.249 5.097-8.78 9.156-16.804 12.177-24.073zm205.238-115.8298c12.272 8.0241 22.184 18.7386 29.736 32.1436 7.552 13.3105 11.328 29.6419 11.328 48.9942 0 16.992-3.398 31.813-10.195 44.463-6.703 12.555-15.624 22.845-26.763 30.869-11.328 8.024-24.214 14.018-38.657 17.983-14.349 3.871-29.406 5.806-45.171 5.806h-101.245v-11.045c3.021-.094 6.797-.378 11.328-.85s7.552-1.038 9.062-1.699c3.399-1.416 5.759-3.304 7.08-5.664 1.322-2.454 1.983-5.381 1.983-8.779v-142.4513c0-3.2096-.614-6.0888-1.841-8.6377-1.227-2.6432-3.634-4.7672-7.222-6.372-3.587-1.6049-7.41-2.6905-11.469-3.2569-3.965-.5664-7.033-.944-9.204-1.1328v-11.04492h106.909c11.422 0 23.647 1.46322 36.674 4.38962 13.028 2.9265 25.583 8.3545 37.667 16.2842zm-28.887 144.0088c4.625-7.552 7.977-16.52 10.053-26.904 2.172-10.479 3.257-22.515 3.257-36.109 0-13.3102-1.416-25.4408-4.248-36.3913s-6.985-20.2962-12.461-28.0371c-5.475-7.7409-12.319-13.7354-20.532-17.9834-8.118-4.2481-17.37-6.3721-27.754-6.3721-3.304 0-7.08.0944-11.328.2832-4.154.0944-7.269.1888-9.346.2832v152.5045c0 3.399.425 6.42 1.275 9.063.944 2.549 2.501 4.814 4.673 6.797 2.171 1.982 4.814 3.54 7.929 4.673 3.21 1.038 7.364 1.557 12.461 1.557 10.668 0 19.824-1.982 27.471-5.947 7.646-3.965 13.83-9.771 18.55-17.417zm416.141-45.454c-2.93.283-5.52.614-7.79.991-2.27.378-5.1 1.133-8.5 2.266-3.87 1.227-6.42 3.257-7.64 6.089-1.23 2.832-1.84 5.805-1.84 8.92v23.365c0 4.72.04 8.543.14 11.469.09 2.833.23 6.373.42 10.621-9.44 5.664-23.41 10.997-41.91 16.001-18.41 5.003-35.35 7.504-50.84 7.504-14.53 0-28.18-2.218-40.92-6.655s-23.93-11.092-33.56-19.966c-9.63-8.779-17.23-19.682-22.8-32.71-5.47-13.027-8.21-27.942-8.21-44.746 0-15.6703 2.6-30.1608 7.79-43.4714 5.19-13.3105 12.7-24.7802 22.51-34.4091 9.63-9.5346 21.34-16.8978 35.12-22.08989 13.88-5.19206 29.22-7.788087 46.02-7.788087 11.42 0 22 1.416017 31.72 4.248047 9.72 2.73763 17.75 5.71123 24.07 8.92093l8.78-7.78812h12.32l1.27 73.34962h-12.46c-7.17-21.9955-15.76-38.3268-25.77-48.9941-10-10.6674-22.65-16.001-37.95-16.001-18.12 0-32.14 7.9297-42.05 23.789-9.82 15.8594-14.73 37.7133-14.73 65.5611 0 29.548 4.82 52.676 14.44 69.385 9.73 16.709 23.46 25.064 41.21 25.064 8.31 0 15.67-1.228 22.09-3.682 6.51-2.549 11.56-5.475 15.15-8.779v-40.781c0-3.399-.61-6.231-1.84-8.497-1.23-2.36-3.68-4.389-7.36-6.088-2.83-1.322-6.37-2.408-10.62-3.257-4.25-.85-7.79-1.463-10.62-1.841v-11.045h104.36zm237.1-108.1837c-3.4.3776-6.52.9912-9.35 1.8408s-5.52 2.0296-8.07 3.5401c-4.06 2.2656-7.7 5.192-10.91 8.7793-3.11 3.4928-6.18 7.4104-9.2 11.7529-6.14 8.9681-12.6 18.7386-19.4 29.3115-6.7 10.4785-14.02 22.0427-21.95 34.6921-5.19 8.024-8.4 14.208-9.63 18.55-1.13 4.248-1.7 11.659-1.7 22.232v28.461c0 3.399.62 6.373 1.85 8.921 1.32 2.549 3.77 4.626 7.36 6.231 1.6.661 5 1.557 10.19 2.69 5.2 1.039 9.02 1.652 11.47 1.841v11.045h-112v-11.045c2.64-.189 6.42-.566 11.33-1.133 5-.566 8.49-1.227 10.47-1.982 3.5-1.511 5.86-3.493 7.08-5.947 1.33-2.549 1.99-5.617 1.99-9.205v-35.4c0-3.115-.05-5.853-.15-8.213-.09-2.36-.42-4.342-.99-5.947-.66-1.794-1.79-4.059-3.39-6.797-1.61-2.832-3.69-6.466-6.24-10.903-7.26-12.7444-14.3-24.8277-21.09-36.2503-6.8-11.4225-13.27-22.137-19.4-32.1435-3.21-5.1921-6.47-9.3457-9.77-12.461-3.21-3.2096-6.52-5.8056-9.92-7.788-2.54-1.4161-5.66-2.5017-9.34-3.2569-3.59-.7552-6.85-1.2272-9.77-1.416v-11.04492h115.12v11.04492c-10.57.2832-17.7 1.0384-21.38 2.2656-3.68 1.1328-5.52 2.7377-5.52 4.8145 0 1.0384.66 3.1152 1.98 6.2305 1.41 3.1152 3.87 7.9296 7.36 14.4433 3.21 6.1361 7.88 14.585 14.02 25.3467 6.23 10.7617 13.69 23.3642 22.37 37.8081 17.94-28.4152 30.26-48.2394 36.96-59.4731 6.7-11.3282 10.05-18.2667 10.05-20.8155 0-3.2096-1.98-5.664-5.94-7.3633-3.87-1.6992-10.2-2.7848-18.98-3.2568v-11.04492h74.49zm290.9 189.8877h-108.89v-11.045c3.21-.283 7.13-.755 11.75-1.416 4.72-.661 7.93-1.369 9.63-2.124 3.49-1.416 6-3.351 7.51-5.806 1.51-2.454 2.26-5.569 2.26-9.345v-150.098l-69.1 176.577h-17.84c-.85-3.115-2.97-9.298-6.37-18.55-3.31-9.251-6-16.661-8.07-22.231l-50.84-138.0616v122.2026c0 11.705.76 20.626 2.27 26.762 1.6 6.042 4.15 10.479 7.64 13.311 2.36 1.982 6.56 3.87 12.61 5.664 6.13 1.793 10.43 2.832 12.88 3.115v11.045h-86.38v-11.045c2.36-.283 6.19-.897 11.47-1.841 5.38-1.038 9.77-2.785 13.17-5.239 3.78-2.643 6.33-7.08 7.65-13.311 1.32-6.324 1.98-15.293 1.98-26.904v-99.5457c0-6.0417-.75-11.045-2.26-15.0098-1.51-4.0593-3.78-7.2689-6.8-9.6289-3.78-2.9264-7.65-4.8145-11.61-5.6641-3.97-.8496-7.98-1.416-12.04-1.6992v-11.04492h92.47l49.56 132.68062 41.77-107.7587c1.42-3.9649 2.79-8.6849 4.11-14.1602s2.03-9.0625 2.12-10.76172h89.07v11.04492c-3.02.1888-6.19.5664-9.49 1.1328s-6.47 1.3216-9.49 2.2656c-3.68 1.2273-6.13 3.1625-7.36 5.8057-1.13 2.6432-1.7 5.5697-1.7 8.7793v142.3093c0 3.399.57 6.278 1.7 8.638 1.23 2.266 3.68 4.248 7.36 5.947 1.89.85 4.96 1.652 9.21 2.407 4.34.756 7.69 1.275 10.05 1.558z" fill="#fff"/></svg>

<svg width="1811" height="213" viewBox="0 0 1811 213" fill="none" xmlns="http://www.w3.org/2000/svg">
<path d="M223.501 125.296C220.575 125.579 217.979 125.91 215.713 126.287C213.447 126.665 210.615 127.42 207.217 128.553C203.346 129.78 200.798 131.81 199.57 134.642C198.343 137.474 197.729 140.447 197.729 143.562V166.927C197.729 171.647 197.777 175.47 197.871 178.396C197.965 181.229 198.107 184.769 198.296 189.017C188.856 194.681 174.884 200.014 156.382 205.018C137.974 210.021 121.029 212.522 105.547 212.522C91.0091 212.522 77.3682 210.304 64.624 205.867C51.8799 201.43 40.6934 194.775 31.0645 185.901C21.4355 177.122 13.8363 166.219 8.2666 153.191C2.79134 140.164 0.0537109 125.249 0.0537109 108.445C0.0537109 92.7747 2.64974 78.2842 7.8418 64.9736C13.0339 51.6631 20.5387 40.1934 30.3564 30.5645C39.9854 21.0299 51.6911 13.6667 65.4736 8.47461C79.3506 3.28255 94.6908 0.686523 111.494 0.686523C122.917 0.686523 133.49 2.10254 143.213 4.93457C152.936 7.6722 160.96 10.6458 167.285 13.8555L176.064 6.06738H188.384L189.658 79.417H177.197C170.023 57.4215 161.432 41.0902 151.426 30.4229C141.419 19.7555 128.77 14.4219 113.477 14.4219C95.3516 14.4219 81.333 22.3516 71.4209 38.2109C61.6032 54.0703 56.6943 75.9242 56.6943 103.772C56.6943 133.32 61.5088 156.448 71.1377 173.157C80.861 189.866 94.5964 198.221 112.344 198.221C120.651 198.221 128.014 196.993 134.434 194.539C140.947 191.99 145.998 189.064 149.585 185.76V144.979C149.585 141.58 148.971 138.748 147.744 136.482C146.517 134.122 144.062 132.093 140.381 130.394C137.549 129.072 134.009 127.986 129.761 127.137C125.513 126.287 121.973 125.674 119.141 125.296V114.251H223.501V125.296ZM434.119 28.4404C444.031 37.5029 451.867 48.4535 457.625 61.292C463.478 74.1305 466.404 88.7627 466.404 105.188C466.404 119.821 463.95 133.745 459.041 146.961C454.132 160.177 447.052 171.552 437.801 181.087C428.077 190.999 416.655 198.74 403.533 204.31C390.411 209.785 374.788 212.522 356.663 212.522C342.031 212.522 328.201 210.115 315.174 205.301C302.146 200.486 290.677 193.501 280.765 184.344C270.947 175.376 263.159 164.472 257.4 151.634C251.642 138.795 248.763 124.493 248.763 108.729C248.763 92.3027 251.548 77.4346 257.117 64.124C262.781 50.7191 270.522 39.2493 280.34 29.7148C290.063 20.3691 301.58 13.1947 314.891 8.19141C328.296 3.09375 342.55 0.544922 357.654 0.544922C372.664 0.544922 386.73 2.99935 399.852 7.9082C413.068 12.8171 424.49 19.6611 434.119 28.4404ZM397.728 172.166C401.976 163.576 405.044 153.852 406.932 142.996C408.82 132.14 409.764 119.868 409.764 106.18C409.764 94.5684 408.914 83.2874 407.215 72.3369C405.61 61.292 402.825 51.4743 398.86 42.8838C394.801 34.2933 389.42 27.402 382.718 22.21C376.015 17.0179 367.661 14.4219 357.654 14.4219C340.568 14.4219 327.588 22.5404 318.714 38.7773C309.84 54.9199 305.403 77.765 305.403 107.312C305.403 119.868 306.347 131.715 308.235 142.854C310.218 153.994 313.286 163.717 317.439 172.024C321.688 180.426 327.068 186.987 333.582 191.707C340.096 196.333 348.12 198.646 357.654 198.646C367 198.646 375.024 196.285 381.727 191.565C388.429 186.845 393.763 180.379 397.728 172.166ZM689.908 142.571L685.943 207H500.87V195.955C504.174 195.672 508.045 195.247 512.481 194.681C516.918 194.02 519.845 193.406 521.261 192.84C524.659 191.518 527.019 189.677 528.341 187.317C529.662 184.957 530.323 181.937 530.323 178.255V36.5117C530.323 33.1133 529.804 30.3285 528.766 28.1572C527.727 25.8916 525.226 23.862 521.261 22.0684C518.334 20.7467 514.794 19.7083 510.641 18.9531C506.581 18.1035 503.325 17.4899 500.87 17.1123V6.06738H611.178V17.1123C608.157 17.3955 604.57 17.8203 600.416 18.3867C596.357 18.8587 592.817 19.5667 589.796 20.5107C586.114 21.738 583.66 23.6732 582.433 26.3164C581.205 28.8652 580.592 31.7917 580.592 35.0957V167.21C580.592 173.44 581.017 178.349 581.866 181.937C582.716 185.524 584.368 188.167 586.822 189.866C589.277 191.66 592.675 192.84 597.018 193.406C601.454 193.878 607.543 194.114 615.284 194.114C622.836 194.114 630.152 193.689 637.232 192.84C644.407 191.896 649.552 189.913 652.667 186.893C657.481 182.078 662.39 175.328 667.394 166.644C672.491 157.864 676.55 149.84 679.571 142.571H689.908ZM895.146 26.7412C907.418 34.7653 917.33 45.4798 924.882 58.8848C932.434 72.1953 936.21 88.5267 936.21 107.879C936.21 124.871 932.812 139.692 926.015 152.342C919.312 164.897 910.391 175.187 899.252 183.211C887.924 191.235 875.038 197.229 860.595 201.194C846.246 205.065 831.189 207 815.424 207H714.179V195.955C717.2 195.861 720.976 195.577 725.507 195.105C730.038 194.633 733.059 194.067 734.569 193.406C737.968 191.99 740.328 190.102 741.649 187.742C742.971 185.288 743.632 182.361 743.632 178.963V36.5117C743.632 33.3021 743.018 30.4229 741.791 27.874C740.564 25.2308 738.157 23.1068 734.569 21.502C730.982 19.8971 727.159 18.8115 723.1 18.2451C719.135 17.6787 716.067 17.3011 713.896 17.1123V6.06738H820.805C832.227 6.06738 844.452 7.5306 857.479 10.457C870.507 13.3835 883.062 18.8115 895.146 26.7412ZM866.259 170.75C870.884 163.198 874.236 154.23 876.312 143.846C878.484 133.367 879.569 121.331 879.569 107.737C879.569 94.4268 878.153 82.2962 875.321 71.3457C872.489 60.3952 868.336 51.0495 862.86 43.3086C857.385 35.5677 850.541 29.5732 842.328 25.3252C834.21 21.0771 824.958 18.9531 814.574 18.9531C811.27 18.9531 807.494 19.0475 803.246 19.2363C799.092 19.3307 795.977 19.4251 793.9 19.5195V172.024C793.9 175.423 794.325 178.444 795.175 181.087C796.119 183.636 797.676 185.901 799.848 187.884C802.019 189.866 804.662 191.424 807.777 192.557C810.987 193.595 815.141 194.114 820.238 194.114C830.906 194.114 840.062 192.132 847.709 188.167C855.355 184.202 861.539 178.396 866.259 170.75ZM1282.4 125.296C1279.47 125.579 1276.88 125.91 1274.61 126.287C1272.34 126.665 1269.51 127.42 1266.11 128.553C1262.24 129.78 1259.69 131.81 1258.47 134.642C1257.24 137.474 1256.63 140.447 1256.63 143.562V166.927C1256.63 171.647 1256.67 175.47 1256.77 178.396C1256.86 181.229 1257 184.769 1257.19 189.017C1247.75 194.681 1233.78 200.014 1215.28 205.018C1196.87 210.021 1179.93 212.522 1164.44 212.522C1149.91 212.522 1136.26 210.304 1123.52 205.867C1110.78 201.43 1099.59 194.775 1089.96 185.901C1080.33 177.122 1072.73 166.219 1067.16 153.191C1061.69 140.164 1058.95 125.249 1058.95 108.445C1058.95 92.7747 1061.55 78.2842 1066.74 64.9736C1071.93 51.6631 1079.44 40.1934 1089.25 30.5645C1098.88 21.0299 1110.59 13.6667 1124.37 8.47461C1138.25 3.28255 1153.59 0.686523 1170.39 0.686523C1181.81 0.686523 1192.39 2.10254 1202.11 4.93457C1211.83 7.6722 1219.86 10.6458 1226.18 13.8555L1234.96 6.06738H1247.28L1248.55 79.417H1236.09C1228.92 57.4215 1220.33 41.0902 1210.32 30.4229C1200.32 19.7555 1187.67 14.4219 1172.37 14.4219C1154.25 14.4219 1140.23 22.3516 1130.32 38.2109C1120.5 54.0703 1115.59 75.9242 1115.59 103.772C1115.59 133.32 1120.41 156.448 1130.03 173.157C1139.76 189.866 1153.49 198.221 1171.24 198.221C1179.55 198.221 1186.91 196.993 1193.33 194.539C1199.84 191.99 1204.89 189.064 1208.48 185.76V144.979C1208.48 141.58 1207.87 138.748 1206.64 136.482C1205.41 134.122 1202.96 132.093 1199.28 130.394C1196.45 129.072 1192.91 127.986 1188.66 127.137C1184.41 126.287 1180.87 125.674 1178.04 125.296V114.251H1282.4V125.296ZM1519.5 17.1123C1516.1 17.4899 1512.98 18.1035 1510.15 18.9531C1507.32 19.8027 1504.63 20.9827 1502.08 22.4932C1498.02 24.7588 1494.38 27.6852 1491.17 31.2725C1488.06 34.7653 1484.99 38.6829 1481.97 43.0254C1475.83 51.9935 1469.37 61.764 1462.57 72.3369C1455.87 82.8154 1448.55 94.3796 1440.62 107.029C1435.43 115.053 1432.22 121.237 1430.99 125.579C1429.86 129.827 1429.29 137.238 1429.29 147.811V176.272C1429.29 179.671 1429.91 182.645 1431.14 185.193C1432.46 187.742 1434.91 189.819 1438.5 191.424C1440.1 192.085 1443.5 192.981 1448.69 194.114C1453.89 195.153 1457.71 195.766 1460.16 195.955V207H1348.16V195.955C1350.8 195.766 1354.58 195.389 1359.49 194.822C1364.49 194.256 1367.98 193.595 1369.96 192.84C1373.46 191.329 1375.82 189.347 1377.04 186.893C1378.37 184.344 1379.03 181.276 1379.03 177.688V142.288C1379.03 139.173 1378.98 136.435 1378.88 134.075C1378.79 131.715 1378.46 129.733 1377.89 128.128C1377.23 126.334 1376.1 124.069 1374.5 121.331C1372.89 118.499 1370.81 114.865 1368.26 110.428C1361 97.6836 1353.96 85.6003 1347.17 74.1777C1340.37 62.7552 1333.9 52.0407 1327.77 42.0342C1324.56 36.8421 1321.3 32.6885 1318 29.5732C1314.79 26.3636 1311.48 23.7676 1308.08 21.7852C1305.54 20.3691 1302.42 19.2835 1298.74 18.5283C1295.15 17.7731 1291.89 17.3011 1288.97 17.1123V6.06738H1404.09V17.1123C1393.52 17.3955 1386.39 18.1507 1382.71 19.3779C1379.03 20.5107 1377.19 22.1156 1377.19 24.1924C1377.19 25.2308 1377.85 27.3076 1379.17 30.4229C1380.58 33.5381 1383.04 38.3525 1386.53 44.8662C1389.74 51.0023 1394.41 59.4512 1400.55 70.2129C1406.78 80.9746 1414.24 93.5771 1422.92 108.021C1440.86 79.6058 1453.18 59.7816 1459.88 48.5479C1466.58 37.2197 1469.93 30.2812 1469.93 27.7324C1469.93 24.5228 1467.95 22.0684 1463.99 20.3691C1460.12 18.6699 1453.79 17.5843 1445.01 17.1123V6.06738H1519.5V17.1123ZM1810.4 207H1701.51V195.955C1704.72 195.672 1708.64 195.2 1713.26 194.539C1717.98 193.878 1721.19 193.17 1722.89 192.415C1726.38 190.999 1728.89 189.064 1730.4 186.609C1731.91 184.155 1732.66 181.04 1732.66 177.264V27.166L1663.56 203.743H1645.72C1644.87 200.628 1642.75 194.445 1639.35 185.193C1636.04 175.942 1633.35 168.532 1631.28 162.962L1580.44 24.9004V147.103C1580.44 158.808 1581.2 167.729 1582.71 173.865C1584.31 179.907 1586.86 184.344 1590.35 187.176C1592.71 189.158 1596.91 191.046 1602.96 192.84C1609.09 194.633 1613.39 195.672 1615.84 195.955V207H1529.46V195.955C1531.82 195.672 1535.65 195.058 1540.93 194.114C1546.31 193.076 1550.7 191.329 1554.1 188.875C1557.88 186.232 1560.43 181.795 1561.75 175.564C1563.07 169.24 1563.73 160.271 1563.73 148.66V49.1143C1563.73 43.0726 1562.98 38.0693 1561.47 34.1045C1559.96 30.0452 1557.69 26.8356 1554.67 24.4756C1550.89 21.5492 1547.02 19.6611 1543.06 18.8115C1539.09 17.9619 1535.08 17.3955 1531.02 17.1123V6.06738H1623.49L1673.05 138.748L1714.82 30.9893C1716.24 27.0244 1717.61 22.3044 1718.93 16.8291C1720.25 11.3538 1720.96 7.7666 1721.05 6.06738H1810.12V17.1123C1807.1 17.3011 1803.93 17.6787 1800.63 18.2451C1797.33 18.8115 1794.16 19.5667 1791.14 20.5107C1787.46 21.738 1785.01 23.6732 1783.78 26.3164C1782.65 28.9596 1782.08 31.8861 1782.08 35.0957V177.405C1782.08 180.804 1782.65 183.683 1783.78 186.043C1785.01 188.309 1787.46 190.291 1791.14 191.99C1793.03 192.84 1796.1 193.642 1800.35 194.397C1804.69 195.153 1808.04 195.672 1810.4 195.955V207Z" fill="white"/>
</svg>
